src/main/resources/github/anandb/netbeans/ui/icons/mdproject.svg

<svg xmlns="http://www.w3.org/2000/svg" width="24" height="24" viewBox="0 0 24 24"><g transform="translate(0, 4.59375) scale(0.09375)"><path fill="#555555" d="M238.371257,157.892216 L18.3952096,157.892216 C8.43113772,157.892216 0,149.461078 0,139.497006 L0,18.3952096 C0,8.43113772 8.43113772,0 18.3952096,0 L237.60479,0 C247.568862,0 256,8.43113772 256,18.3952096 L256,139.497006 C256,149.461078 248.335329,157.892216 238.371257,157.892216 L238.371257,157.892216 Z M18.3952096,12.2634731 C15.3293413,12.2634731 12.2634731,15.3293413 12.2634731,18.3952096 L12.2634731,139.497006 C12.2634731,143.329341 15.3293413,145.628743 18.3952096,145.628743 L237.60479,145.628743 C241.437126,145.628743 243.736527,142.562874 243.736527,139.497006 L243.736527,18.3952096 C243.736527,14.5628743 240.670659,12.2634731 237.60479,12.2634731 C238.371257,12.2634731 18.3952096,12.2634731 18.3952096,12.2634731 L18.3952096,12.2634731 Z M36.7904192,121.101796 L36.7904192,36.7904192 L61.3173653,36.7904192 L85.8443114,67.4491018 L110.371257,36.7904192 L134.898204,36.7904192 L134.898204,121.101796 L110.371257,121.101796 L110.371257,72.8143713 L85.8443114,103.473054 L61.3173653,72.8143713 L61.3173653,121.101796 L36.7904192,121.101796 L36.7904192,121.101796 Z M190.850299,121.101796 L154.05988,80.4790419 L178.586826,80.4790419 L178.586826,36.7904192 L203.113772,36.7904192 L203.113772,79.7125749 L227.640719,79.7125749 L190.850299,121.101796 L190.850299,121.101796 Z"/></g></svg>

<?xml version="1.0" encoding="UTF-8" standalone="no"?>
<svg
   width="24"
   height="14.802395"
   viewBox="0 0 24 14.802395"
   version="1.1"
   id="svg1"
   sodipodi:docname="mdproject.svg"
   inkscape:version="1.4.4 (unknown)"
   xmlns:inkscape="http://www.inkscape.org/namespaces/inkscape"
   xmlns:sodipodi="http://sodipodi.sourceforge.net/DTD/sodipodi-0.dtd"
   xmlns="http://www.w3.org/2000/svg"
   xmlns:svg="http://www.w3.org/2000/svg">
  <defs
     id="defs1" />
  <sodipodi:namedview
     id="namedview1"
     pagecolor="#ffffff"
     bordercolor="#000000"
     borderopacity="0.25"
     inkscape:showpageshadow="2"
     inkscape:pageopacity="0.0"
     inkscape:pagecheckerboard="0"
     inkscape:deskcolor="#d1d1d1"
     inkscape:zoom="45.625"
     inkscape:cx="12"
     inkscape:cy="7.3972603"
     inkscape:window-width="3434"
     inkscape:window-height="1326"
     inkscape:window-x="0"
     inkscape:window-y="63"
     inkscape:window-maximized="1"
     inkscape:current-layer="svg1" />
  <g
     transform="scale(0.09375)"
     id="g1">
    <path
       fill="#555555"
       d="M 238.37126,157.89222 H 18.39521 C 8.4311377,157.89222 0,149.46108 0,139.49701 V 18.39521 C 0,8.4311377 8.4311377,0 18.39521,0 H 237.60479 C 247.56886,0 256,8.4311377 256,18.39521 v 121.1018 c 0,9.96407 -7.66467,18.39521 -17.62874,18.39521 z M 18.39521,12.263473 c -3.065869,0 -6.131737,3.065868 -6.131737,6.131737 v 121.1018 c 0,3.83233 3.065868,6.13173 6.131737,6.13173 h 219.20958 c 3.83234,0 6.13174,-3.06587 6.13174,-6.13173 V 18.39521 c 0,-3.832336 -3.06587,-6.131737 -6.13174,-6.131737 0.76647,0 -219.20958,0 -219.20958,0 z M 36.790419,121.1018 V 36.790419 H 61.317365 L 85.844311,67.449102 110.37126,36.790419 H 134.8982 V 121.1018 H 110.37126 V 72.814371 L 85.844311,103.47305 61.317365,72.814371 V 121.1018 Z m 154.059881,0 -36.79042,-40.622758 h 24.52695 V 36.790419 h 24.52694 v 42.922156 h 24.52695 z"
       id="path1" />
  </g>
</svg>
